assets/App Store batch.svg

<svg width="108" height="32" viewBox="0 0 108 32" fill="none" xmlns="http://www.w3.org/2000/svg">
<path d="M104.105 31.5H3.78128C1.97381 31.5 0.5 30.0224 0.5 28.2136V3.7808C0.5 1.97225 1.97278 0.5 3.78128 0.5H104.105C105.923 0.5 107.445 1.98233 107.445 3.7808V28.2136C107.445 30.0123 105.922 31.5 104.105 31.5Z" stroke="#253141"/>
<path d="M24.0901 15.8272C24.0669 13.2488 26.2002 11.9944 26.2978 11.936C25.0896 10.1736 23.2169 9.93281 22.5589 9.91361C20.9861 9.74801 19.4605 10.8552 18.6593 10.8552C17.8421 10.8552 16.6083 9.92961 15.2786 9.95681C13.5675 9.98321 11.9667 10.9744 11.0887 12.5136C9.27683 15.652 10.6281 20.264 12.3641 22.8008C13.2324 24.0432 14.2471 25.4304 15.5752 25.3816C16.8746 25.328 17.3599 24.5528 18.9279 24.5528C20.4815 24.5528 20.9373 25.3816 22.2918 25.3504C23.6863 25.328 24.5643 24.1024 25.4022 22.8488C26.4057 21.4248 26.8087 20.0224 26.8247 19.9504C26.7919 19.9392 24.1165 18.9176 24.0901 15.8272Z" fill="#253141"/>
<path d="M21.5313 8.24483C22.2302 7.37043 22.7083 6.18083 22.5756 4.97363C21.5641 5.01843 20.2991 5.67363 19.5707 6.52883C18.9262 7.28243 18.3505 8.51763 18.4992 9.67923C19.6355 9.76403 20.8021 9.10563 21.5313 8.24483Z" fill="#253141"/>
<path d="M42.8943 25.2032H41.0784L40.0838 22.076H36.6263L35.6788 25.2032H33.9109L37.3363 14.5568H39.4521L42.8943 25.2032ZM39.7839 20.764L38.8844 17.984C38.7892 17.7 38.6109 17.0312 38.3478 15.9784H38.3159C38.2111 16.4312 38.0424 17.1 37.8105 17.984L36.927 20.764H39.7839Z" fill="#253141"/>
<path d="M51.7034 21.2704C51.7034 22.576 51.3508 23.608 50.6455 24.3656C50.0138 25.04 49.2294 25.3768 48.2931 25.3768C47.2824 25.3768 46.5564 25.0136 46.1142 24.2872H46.0822V28.3312H44.3775V20.0536C44.3775 19.2328 44.3559 18.3904 44.3143 17.5264H45.8136L45.9087 18.7432H45.9407C46.5092 17.8264 47.372 17.3688 48.5298 17.3688C49.4349 17.3688 50.1905 17.7264 50.795 18.4424C51.4011 19.1592 51.7034 20.1016 51.7034 21.2704ZM49.9667 21.3328C49.9667 20.5856 49.7987 19.9696 49.4613 19.4848C49.0927 18.9792 48.5978 18.7264 47.9773 18.7264C47.5567 18.7264 47.1745 18.8672 46.833 19.1448C46.4908 19.4248 46.2669 19.7904 46.1622 20.2432C46.1094 20.4544 46.083 20.6272 46.083 20.7632V22.0432C46.083 22.6016 46.2541 23.0728 46.5964 23.4576C46.9386 23.8424 47.3832 24.0344 47.9301 24.0344C48.5722 24.0344 49.0719 23.7864 49.4293 23.292C49.7875 22.7968 49.9667 22.144 49.9667 21.3328Z" fill="#253141"/>
<path d="M60.5285 21.2704C60.5285 22.576 60.1759 23.608 59.4698 24.3656C58.839 25.04 58.0546 25.3768 57.1182 25.3768C56.1075 25.3768 55.3815 25.0136 54.9401 24.2872H54.9082V28.3312H53.2034V20.0536C53.2034 19.2328 53.1818 18.3904 53.1403 17.5264H54.6395L54.7347 18.7432H54.7666C55.3343 17.8264 56.1971 17.3688 57.3557 17.3688C58.2601 17.3688 59.0157 17.7264 59.6218 18.4424C60.2255 19.1592 60.5285 20.1016 60.5285 21.2704ZM58.7918 21.3328C58.7918 20.5856 58.6231 19.9696 58.2856 19.4848C57.917 18.9792 57.4237 18.7264 56.8024 18.7264C56.381 18.7264 55.9996 18.8672 55.6574 19.1448C55.3152 19.4248 55.0921 19.7904 54.9873 20.2432C54.9353 20.4544 54.9082 20.6272 54.9082 20.7632V22.0432C54.9082 22.6016 55.0793 23.0728 55.4199 23.4576C55.7621 23.8416 56.2067 24.0344 56.7552 24.0344C57.3973 24.0344 57.897 23.7864 58.2545 23.292C58.6127 22.7968 58.7918 22.144 58.7918 21.3328Z" fill="#253141"/>
<path d="M70.3956 22.2176C70.3956 23.1232 70.0814 23.86 69.4505 24.4288C68.7573 25.0504 67.7922 25.3608 66.552 25.3608C65.407 25.3608 64.489 25.14 63.7942 24.6976L64.1892 23.276C64.9376 23.7288 65.7588 23.956 66.6535 23.956C67.2956 23.956 67.7954 23.8104 68.1544 23.5208C68.5118 23.2312 68.6901 22.8424 68.6901 22.3576C68.6901 21.9256 68.543 21.5616 68.2479 21.2664C67.9545 20.9712 67.4643 20.6968 66.7799 20.4432C64.9168 19.748 63.9861 18.7296 63.9861 17.3904C63.9861 16.5152 64.3123 15.7976 64.9656 15.2392C65.6165 14.68 66.4848 14.4008 67.5707 14.4008C68.539 14.4008 69.3434 14.5696 69.9854 14.9064L69.5593 16.2968C68.9596 15.9704 68.2815 15.8072 67.5227 15.8072C66.923 15.8072 66.4544 15.9552 66.1186 16.2496C65.8348 16.5128 65.6924 16.8336 65.6924 17.2136C65.6924 17.6344 65.8547 17.9824 66.181 18.256C66.4648 18.5088 66.9806 18.7824 67.729 19.0776C68.6445 19.4464 69.317 19.8776 69.7496 20.372C70.1805 20.8648 70.3956 21.4816 70.3956 22.2176Z" fill="#253141"/>
<path d="M76.032 18.8063H74.1529V22.5335C74.1529 23.4815 74.4839 23.9551 75.1476 23.9551C75.4523 23.9551 75.7049 23.9287 75.9048 23.8759L75.952 25.1711C75.6162 25.2967 75.174 25.3599 74.6263 25.3599C73.953 25.3599 73.4269 25.1543 73.0471 24.7439C72.6689 24.3327 72.4786 23.6431 72.4786 22.6743V18.8047H71.3591V17.5247H72.4786V16.1191L74.1529 15.6135V17.5247H76.032V18.8063Z" fill="#253141"/>
<path d="M84.5099 21.3015C84.5099 22.4815 84.1725 23.4503 83.4992 24.2079C82.7932 24.9879 81.856 25.3767 80.6878 25.3767C79.562 25.3767 78.6657 25.0031 77.9972 24.2559C77.3287 23.5087 76.9945 22.5655 76.9945 21.4287C76.9945 20.2391 77.3383 19.2647 78.0284 18.5071C78.7168 17.7487 79.646 17.3695 80.8142 17.3695C81.94 17.3695 82.8459 17.7431 83.5296 18.4911C84.1837 19.2167 84.5099 20.1535 84.5099 21.3015ZM82.7412 21.3567C82.7412 20.6487 82.5901 20.0415 82.2838 19.5351C81.9264 18.9223 81.4155 18.6167 80.7534 18.6167C80.0681 18.6167 79.5476 18.9231 79.1902 19.5351C78.8839 20.0423 78.7328 20.6591 78.7328 21.3887C78.7328 22.0967 78.8839 22.7039 79.1902 23.2095C79.5588 23.8223 80.0737 24.1279 80.7382 24.1279C81.3891 24.1279 81.9 23.8159 82.2686 23.1935C82.5829 22.6775 82.7412 22.0639 82.7412 21.3567Z" fill="#253141"/>
<path d="M90.0512 19.0264C89.8824 18.9952 89.7025 18.9792 89.5138 18.9792C88.9141 18.9792 88.4504 19.2056 88.1241 19.6592C87.8403 20.0592 87.698 20.5648 87.698 21.1752V25.2032H85.994L86.01 19.944C86.01 19.0592 85.9884 18.2536 85.946 17.5272H87.4309L87.4933 18.996H87.5404C87.7203 18.4912 88.0042 18.0848 88.3928 17.78C88.7726 17.5056 89.1828 17.3688 89.625 17.3688C89.7825 17.3688 89.9248 17.38 90.0512 17.4V19.0264Z" fill="#253141"/>
<path d="M97.6754 21.0016C97.6754 21.3072 97.6554 21.5648 97.613 21.7752H92.4988C92.5188 22.5336 92.7659 23.1136 93.2408 23.5136C93.6718 23.8712 94.2291 24.0504 94.9136 24.0504C95.6708 24.0504 96.3616 23.9296 96.9829 23.6872L97.25 24.8712C96.524 25.188 95.6668 25.3456 94.6777 25.3456C93.4879 25.3456 92.554 24.9952 91.8743 24.2952C91.1963 23.5952 90.8564 22.6552 90.8564 21.476C90.8564 20.3184 91.1723 19.3544 91.8048 18.5856C92.4668 17.7648 93.3616 17.3544 94.4874 17.3544C95.5932 17.3544 96.4304 17.7648 96.9989 18.5856C97.4491 19.2376 97.6754 20.044 97.6754 21.0016ZM96.0498 20.5592C96.061 20.0536 95.9499 19.6168 95.7188 19.248C95.4237 18.7736 94.9704 18.5368 94.3603 18.5368C93.803 18.5368 93.3496 18.768 93.0034 19.232C92.7195 19.6008 92.5508 20.0432 92.4988 20.5584H96.0498V20.5592Z" fill="#253141"/>
<path d="M39.2201 8.00721C39.2201 8.94881 38.9379 9.65761 38.3741 10.1336C37.852 10.5728 37.11 10.7928 36.1489 10.7928C35.6723 10.7928 35.2645 10.772 34.9231 10.7304V5.58561C35.3685 5.51361 35.8482 5.47681 36.3664 5.47681C37.2819 5.47681 37.9719 5.67601 38.4373 6.07441C38.9586 6.52481 39.2201 7.16881 39.2201 8.00721ZM38.3366 8.03041C38.3366 7.42001 38.175 6.95201 37.852 6.62561C37.529 6.30001 37.0572 6.13681 36.4359 6.13681C36.1721 6.13681 35.9474 6.15441 35.7611 6.19121V10.1024C35.8642 10.1184 36.0529 10.1256 36.3272 10.1256C36.9685 10.1256 37.4634 9.94721 37.812 9.59041C38.1607 9.23361 38.3366 8.71361 38.3366 8.03041Z" fill="#253141"/>
<path d="M43.9049 8.82951C43.9049 9.40951 43.7393 9.88471 43.4083 10.2575C43.0613 10.6407 42.6015 10.8319 42.0274 10.8319C41.4741 10.8319 41.0335 10.6487 40.7049 10.2807C40.3771 9.91351 40.2131 9.45031 40.2131 8.89191C40.2131 8.30791 40.3818 7.82872 40.7209 7.45672C41.0599 7.08472 41.5157 6.89832 42.0898 6.89832C42.6431 6.89832 43.0877 7.08152 43.4243 7.44872C43.7441 7.80552 43.9049 8.26631 43.9049 8.82951ZM43.0357 8.85672C43.0357 8.50872 42.9605 8.21031 42.811 7.96151C42.6351 7.66071 42.3848 7.51031 42.0594 7.51031C41.7228 7.51031 41.4669 7.66071 41.291 7.96151C41.1407 8.21031 41.0663 8.51352 41.0663 8.87192C41.0663 9.21992 41.1415 9.51831 41.291 9.76711C41.4725 10.0679 41.7252 10.2183 42.0514 10.2183C42.3712 10.2183 42.6223 10.0655 42.803 9.75912C42.9581 9.50552 43.0357 9.20472 43.0357 8.85672Z" fill="#253141"/>
<path d="M50.1866 6.9751L49.0072 10.7463H48.2396L47.751 9.1087C47.6271 8.6999 47.5263 8.2935 47.448 7.8903H47.4328C47.36 8.3047 47.2593 8.7103 47.1297 9.1087L46.6108 10.7463H45.8344L44.7253 6.9751H45.5865L46.0127 8.7679C46.1158 9.1919 46.2006 9.5959 46.2686 9.9783H46.2837C46.3461 9.6631 46.4493 9.2615 46.5948 8.7759L47.1297 6.9759H47.8126L48.3251 8.7375C48.449 9.1671 48.5498 9.5807 48.6274 9.9791H48.6505C48.7073 9.5911 48.7929 9.1775 48.9064 8.7375L49.3638 6.9759H50.1866V6.9751Z" fill="#253141"/>
<path d="M54.5307 10.7464H53.6928V8.5864C53.6928 7.9208 53.4401 7.588 52.9331 7.588C52.6845 7.588 52.4838 7.6792 52.3278 7.8624C52.1735 8.0456 52.0952 8.2616 52.0952 8.5088V10.7456H51.2572V8.0528C51.2572 7.7216 51.2468 7.3624 51.2268 6.9736H51.9632L52.0024 7.5632H52.0256C52.1232 7.38 52.2687 7.2288 52.4598 7.108C52.6869 6.9672 52.9411 6.896 53.2194 6.896C53.5712 6.896 53.8639 7.0096 54.0965 7.2376C54.386 7.5168 54.5307 7.9336 54.5307 8.4872V10.7464Z" fill="#253141"/>
<path d="M56.8416 10.7464H56.0044V5.24475H56.8416V10.7464Z" fill="#253141"/>
<path d="M61.775 8.82951C61.775 9.40951 61.6095 9.88471 61.2784 10.2575C60.9314 10.6407 60.4708 10.8319 59.8975 10.8319C59.3434 10.8319 58.9028 10.6487 58.575 10.2807C58.2472 9.91351 58.0833 9.45031 58.0833 8.89191C58.0833 8.30791 58.252 7.82872 58.591 7.45672C58.93 7.08472 59.3858 6.89832 59.9591 6.89832C60.5132 6.89832 60.957 7.08152 61.2944 7.44872C61.6143 7.80552 61.775 8.26631 61.775 8.82951ZM60.905 8.85672C60.905 8.50872 60.8299 8.21031 60.6803 7.96151C60.5052 7.66071 60.2541 7.51031 59.9295 7.51031C59.5921 7.51031 59.3362 7.66071 59.1611 7.96151C59.0108 8.21031 58.9364 8.51352 58.9364 8.87192C58.9364 9.21992 59.0116 9.51831 59.1611 9.76711C59.3426 10.0679 59.5953 10.2183 59.9215 10.2183C60.2414 10.2183 60.4916 10.0655 60.6723 9.75912C60.8283 9.50552 60.905 9.20472 60.905 8.85672Z" fill="#253141"/>
<path d="M65.8306 10.7463H65.0782L65.0158 10.3119H64.9927C64.7352 10.6583 64.3682 10.8319 63.8916 10.8319C63.5358 10.8319 63.2479 10.7175 63.0313 10.4903C62.8346 10.2839 62.7362 10.0271 62.7362 9.72231C62.7362 9.26151 62.9281 8.91031 63.3143 8.66711C63.6997 8.42391 64.2418 8.30471 64.9399 8.31031V8.23992C64.9399 7.74312 64.6792 7.49512 64.1571 7.49512C63.7853 7.49512 63.4574 7.58872 63.1744 7.77432L63.0041 7.22392C63.3543 7.00712 63.7869 6.89832 64.297 6.89832C65.2821 6.89832 65.7763 7.41832 65.7763 8.45832V9.84712C65.7763 10.2239 65.7947 10.5239 65.8306 10.7463ZM64.9607 9.45031V8.86872C64.0363 8.85272 63.5742 9.10632 63.5742 9.62872C63.5742 9.82552 63.627 9.97271 63.7349 10.0711C63.8428 10.1695 63.9804 10.2183 64.1443 10.2183C64.3282 10.2183 64.5001 10.1599 64.6568 10.0439C64.8144 9.92712 64.9111 9.77911 64.9471 9.59751C64.9559 9.55671 64.9607 9.50711 64.9607 9.45031Z" fill="#253141"/>
<path d="M70.5921 10.7464H69.8484L69.8093 10.1408H69.7861C69.5486 10.6016 69.144 10.832 68.5755 10.832C68.1213 10.832 67.7431 10.6536 67.4433 10.2968C67.1434 9.93995 66.9939 9.47675 66.9939 8.90795C66.9939 8.29755 67.1562 7.80315 67.4824 7.42555C67.7983 7.07355 68.1853 6.89755 68.6459 6.89755C69.152 6.89755 69.5062 7.06795 69.7077 7.40955H69.7237V5.24475H70.5625V9.73035C70.5625 10.0976 70.5721 10.436 70.5921 10.7464ZM69.7237 9.15595V8.52715C69.7237 8.41835 69.7157 8.33035 69.7005 8.26315C69.6533 8.06155 69.5518 7.89195 69.3975 7.75515C69.2416 7.61835 69.0536 7.54955 68.837 7.54955C68.5243 7.54955 68.2796 7.67355 68.0997 7.92235C67.9214 8.17115 67.8311 8.48875 67.8311 8.87675C67.8311 9.24955 67.9166 9.55195 68.0885 9.78475C68.27 10.0328 68.5147 10.1568 68.821 10.1568C69.096 10.1568 69.3159 10.0536 69.483 9.84635C69.6445 9.65515 69.7237 9.42475 69.7237 9.15595Z" fill="#253141"/>
<path d="M77.7589 8.82951C77.7589 9.40951 77.5933 9.88471 77.2623 10.2575C76.9153 10.6407 76.4563 10.8319 75.8814 10.8319C75.3289 10.8319 74.8883 10.6487 74.5589 10.2807C74.2311 9.91351 74.0671 9.45031 74.0671 8.89191C74.0671 8.30791 74.2359 7.82872 74.5749 7.45672C74.9139 7.08472 75.3697 6.89832 75.9446 6.89832C76.4971 6.89832 76.9425 7.08152 77.2783 7.44872C77.5981 7.80552 77.7589 8.26631 77.7589 8.82951ZM76.8905 8.85672C76.8905 8.50872 76.8153 8.21031 76.6658 7.96151C76.4891 7.66071 76.2396 7.51031 75.9134 7.51031C75.5776 7.51031 75.3217 7.66071 75.145 7.96151C74.9947 8.21031 74.9203 8.51352 74.9203 8.87192C74.9203 9.21992 74.9955 9.51831 75.145 9.76711C75.3265 10.0679 75.5792 10.2183 75.9054 10.2183C76.2252 10.2183 76.4771 10.0655 76.6578 9.75912C76.8121 9.50552 76.8905 9.20472 76.8905 8.85672Z" fill="#253141"/>
<path d="M82.2646 10.7464H81.4274V8.5864C81.4274 7.9208 81.1747 7.588 80.667 7.588C80.4183 7.588 80.2176 7.6792 80.0625 7.8624C79.9073 8.0456 79.8298 8.2616 79.8298 8.5088V10.7456H78.991V8.0528C78.991 7.7216 78.9814 7.3624 78.9614 6.9736H79.6971L79.7362 7.5632H79.7594C79.8578 7.38 80.0033 7.2288 80.1936 7.108C80.4215 6.9672 80.675 6.896 80.954 6.896C81.305 6.896 81.5977 7.0096 81.8304 7.2376C82.1206 7.5168 82.2646 7.9336 82.2646 8.4872V10.7464Z" fill="#253141"/>
<path d="M87.9041 7.60321H86.9814V9.43521C86.9814 9.90081 87.1453 10.1336 87.47 10.1336C87.6203 10.1336 87.745 10.1208 87.8434 10.0944L87.865 10.7304C87.6995 10.7928 87.482 10.824 87.2141 10.824C86.8831 10.824 86.6256 10.7232 86.4393 10.5216C86.2522 10.32 86.1594 9.98081 86.1594 9.50481V7.60321H85.6085V6.97521H86.1594V6.28401L86.9806 6.03601V6.97441H87.9034V7.60321H87.9041Z" fill="#253141"/>
<path d="M92.3402 10.7464H91.5014V8.60235C91.5014 7.92635 91.2487 7.58795 90.7426 7.58795C90.354 7.58795 90.0885 7.78395 89.943 8.17595C89.9182 8.25835 89.9038 8.35915 89.9038 8.47755V10.7456H89.0667V5.24475H89.9038V7.51755H89.9198C90.1837 7.10395 90.5619 6.89755 91.052 6.89755C91.3991 6.89755 91.6861 7.01115 91.914 7.23915C92.1979 7.52315 92.3402 7.94555 92.3402 8.50395V10.7464Z" fill="#253141"/>
<path d="M96.9163 8.68231C96.9163 8.83271 96.9051 8.95911 96.8851 9.06231H94.372C94.3832 9.43511 94.5031 9.71911 94.7358 9.91591C94.9485 10.0919 95.2227 10.1799 95.5586 10.1799C95.9304 10.1799 96.2694 10.1207 96.5749 10.0015L96.706 10.5839C96.3486 10.7391 95.928 10.8167 95.441 10.8167C94.8573 10.8167 94.3976 10.6447 94.0649 10.3007C93.7307 9.95671 93.5652 9.49511 93.5652 8.91591C93.5652 8.34711 93.7195 7.87351 94.0305 7.49591C94.3552 7.09271 94.7942 6.89111 95.3483 6.89111C95.8904 6.89111 96.3022 7.09271 96.5805 7.49591C96.8051 7.81591 96.9163 8.21191 96.9163 8.68231ZM96.1167 8.46551C96.1231 8.21671 96.0679 8.00231 95.9544 7.82151C95.8088 7.58871 95.5874 7.47191 95.2875 7.47191C95.014 7.47191 94.791 7.58551 94.6206 7.81351C94.4815 7.99511 94.3992 8.21191 94.372 8.46551H96.1167Z" fill="#253141"/>
</svg>

<svg width="108" height="32" viewBox="0 0 108 32" fill="none" xmlns="http://www.w3.org/2000/svg">
<path class="outer" d="M104.105 31.5H3.781A3.29 3.29 0 0 1 .5 28.214V3.78A3.286 3.286 0 0 1 3.781.5h100.324c1.818 0 3.34 1.482 3.34 3.28v24.434c0 1.798-1.523 3.286-3.34 3.286Z" stroke="#000"/>
<path class="inner" d="M24.09 15.827c-.023-2.578 2.11-3.833 2.208-3.891-1.208-1.762-3.08-2.003-3.739-2.022-1.573-.166-3.098.941-3.9.941-.817 0-2.05-.925-3.38-.898-1.711.026-3.312 1.017-4.19 2.557-1.812 3.138-.46 7.75 1.275 10.287.869 1.242 1.883 2.63 3.211 2.58 1.3-.053 1.785-.828 3.353-.828 1.554 0 2.01.829 3.364.797 1.395-.022 2.272-1.248 3.11-2.501 1.004-1.424 1.407-2.827 1.423-2.899-.033-.01-2.708-1.032-2.735-4.123Zm-2.558-7.582c.698-.875 1.177-2.064 1.044-3.271-1.012.044-2.277.7-3.005 1.555-.645.753-1.22 1.989-1.071 3.15 1.136.085 2.302-.573 3.032-1.434Zm21.362 16.958H41.08l-.995-3.127h-3.458l-.947 3.127h-1.77l3.425-10.646h2.116l3.442 10.646Zm-3.11-4.439-.9-2.78c-.095-.284-.273-.953-.536-2.006h-.032a77.635 77.635 0 0 1-.505 2.006l-.884 2.78h2.857Zm11.919.506c0 1.306-.352 2.338-1.057 3.096-.632.674-1.416 1.01-2.353 1.01-1.01 0-1.736-.362-2.179-1.089h-.032v4.044h-1.704v-8.277c0-.821-.022-1.663-.064-2.527h1.5l.095 1.216h.032c.568-.916 1.431-1.374 2.589-1.374.905 0 1.66.358 2.265 1.073.606.717.908 1.66.908 2.828Zm-1.736.063c0-.747-.168-1.363-.506-1.848-.368-.506-.863-.758-1.484-.758-.42 0-.802.14-1.144.418a1.94 1.94 0 0 0-.67 1.098c-.053.212-.08.384-.08.52v1.28c0 .559.171 1.03.514 1.415.342.385.786.577 1.333.577.642 0 1.142-.248 1.5-.743.358-.495.537-1.148.537-1.96Zm10.562-.063c0 1.306-.353 2.338-1.059 3.096-.63.674-1.415 1.01-2.352 1.01-1.01 0-1.736-.362-2.178-1.089h-.032v4.044h-1.705v-8.277c0-.821-.021-1.663-.063-2.527h1.5l.095 1.216h.032c.567-.916 1.43-1.374 2.589-1.374.904 0 1.66.358 2.266 1.073.604.717.907 1.66.907 2.828Zm-1.737.063c0-.747-.169-1.363-.506-1.848-.369-.506-.862-.758-1.483-.758-.422 0-.803.14-1.145.418a1.94 1.94 0 0 0-.67 1.098c-.053.212-.08.384-.08.52v1.28c0 .559.171 1.03.512 1.415.342.384.787.577 1.335.577.642 0 1.142-.248 1.5-.743.358-.495.537-1.148.537-1.96Zm11.604.885c0 .905-.314 1.642-.945 2.21-.694.622-1.659.933-2.899.933-1.145 0-2.063-.22-2.758-.663l.395-1.422c.749.453 1.57.68 2.465.68.642 0 1.142-.145 1.5-.435.358-.29.536-.678.536-1.163 0-.432-.147-.796-.442-1.091-.293-.296-.784-.57-1.468-.824-1.863-.695-2.794-1.713-2.794-3.053 0-.875.326-1.592.98-2.15.65-.56 1.519-.84 2.605-.84.968 0 1.773.17 2.415.506l-.427 1.39c-.6-.325-1.277-.489-2.036-.489-.6 0-1.069.148-1.404.443a1.265 1.265 0 0 0-.427.964c0 .42.163.769.49 1.042.283.253.799.526 1.547.822.916.369 1.588.8 2.02 1.294.432.493.647 1.11.647 1.846Zm5.636-3.412h-1.879v3.728c0 .948.331 1.421.995 1.421.304 0 .557-.026.757-.079l.047 1.295c-.336.126-.778.189-1.326.189-.673 0-1.2-.206-1.579-.616-.378-.411-.568-1.1-.568-2.07v-3.87h-1.12v-1.28h1.12V16.12l1.674-.505v1.91h1.879v1.282Zm8.478 2.496c0 1.18-.337 2.148-1.01 2.906-.707.78-1.644 1.169-2.812 1.169-1.126 0-2.022-.374-2.69-1.121-.67-.747-1.003-1.69-1.003-2.827 0-1.19.343-2.164 1.033-2.922.689-.758 1.618-1.137 2.786-1.137 1.126 0 2.032.373 2.716 1.121.654.726.98 1.663.98 2.81Zm-1.769.055c0-.708-.15-1.315-.457-1.822-.358-.613-.868-.918-1.53-.918-.686 0-1.206.306-1.564.918-.306.507-.457 1.124-.457 1.854 0 .708.151 1.315.457 1.82.369.613.884.919 1.548.919.651 0 1.162-.312 1.53-.934.315-.516.473-1.13.473-1.837Zm7.31-2.331a2.958 2.958 0 0 0-.537-.047c-.6 0-1.064.227-1.39.68-.284.4-.426.906-.426 1.516v4.028h-1.704l.016-5.259c0-.885-.022-1.69-.064-2.417h1.485l.062 1.47h.047c.18-.506.464-.912.853-1.217a2.06 2.06 0 0 1 1.232-.411c.158 0 .3.011.426.031v1.627Zm7.624 1.976c0 .305-.02.563-.062.773H92.5c.02.759.267 1.339.742 1.739.43.357.988.536 1.673.536.757 0 1.448-.12 2.069-.363l.267 1.184c-.726.317-1.583.475-2.572.475-1.19 0-2.124-.35-2.804-1.05-.678-.7-1.017-1.64-1.017-2.82 0-1.158.315-2.122.948-2.89.662-.821 1.557-1.232 2.682-1.232 1.106 0 1.944.41 2.512 1.232.45.652.676 1.458.676 2.416Zm-1.625-.443c.011-.505-.1-.942-.331-1.311-.295-.474-.749-.711-1.359-.711-.557 0-1.01.231-1.357.695a2.546 2.546 0 0 0-.504 1.326l3.55.001ZM39.22 8.007c0 .942-.282 1.65-.846 2.127-.522.439-1.264.659-2.225.659-.477 0-.884-.02-1.226-.063V5.586a9.041 9.041 0 0 1 1.444-.11c.915 0 1.605.2 2.07.598.522.45.783 1.095.783 1.933Zm-.883.023c0-.61-.162-1.078-.485-1.404-.323-.326-.795-.49-1.416-.49-.264 0-.489.018-.675.055v3.911c.103.016.292.024.566.024.642 0 1.137-.179 1.485-.536.349-.356.525-.876.525-1.56Zm5.568.8c0 .58-.166 1.055-.497 1.428-.346.383-.806.574-1.38.574-.554 0-.994-.183-1.323-.551-.328-.367-.492-.83-.492-1.389 0-.584.169-1.063.508-1.435.34-.372.795-.559 1.369-.559.553 0 .998.184 1.334.55.32.358.481.818.481 1.382Zm-.87.027c0-.348-.074-.647-.224-.895-.176-.301-.426-.452-.751-.452-.337 0-.593.15-.769.452-.15.248-.224.552-.224.91 0 .348.075.646.224.895.182.301.434.451.76.451.32 0 .572-.152.752-.459.155-.253.233-.554.233-.902Zm7.152-1.882-1.18 3.771h-.767l-.49-1.636a12.255 12.255 0 0 1-.303-1.219h-.015a8.92 8.92 0 0 1-.303 1.219l-.52 1.637h-.776l-1.109-3.77h.862l.426 1.792c.103.424.188.828.256 1.21h.015c.062-.315.165-.716.31-1.202l.536-1.8h.683l.512 1.762c.124.43.225.843.302 1.241h.024c.056-.388.142-.801.255-1.241l.458-1.762h.823Zm4.343 3.771h-.837v-2.16c0-.665-.253-.998-.76-.998a.756.756 0 0 0-.605.274.974.974 0 0 0-.233.647v2.237h-.838V8.053c0-.331-.01-.69-.03-1.08h.736l.04.59h.023a1.21 1.21 0 0 1 .434-.455c.227-.14.481-.212.76-.212.351 0 .644.114.877.342.29.279.434.696.434 1.25v2.258Zm2.312 0h-.837V5.245h.837v5.501Zm4.933-1.916c0 .58-.165 1.055-.496 1.428-.347.383-.808.574-1.381.574-.554 0-.995-.183-1.323-.551-.328-.367-.492-.83-.492-1.389 0-.584.17-1.063.508-1.435.34-.372.795-.559 1.368-.559.554 0 .998.184 1.336.55.32.358.48.818.48 1.382Zm-.87.027c0-.348-.075-.647-.224-.895-.176-.301-.427-.452-.751-.452-.338 0-.594.15-.769.452-.15.248-.224.552-.224.91 0 .348.075.646.224.895.182.301.434.451.76.451.32 0 .57-.152.752-.459.155-.253.232-.554.232-.902Zm4.925 1.889h-.752l-.062-.434h-.023c-.258.346-.625.52-1.101.52-.356 0-.644-.114-.86-.342a1.071 1.071 0 0 1-.296-.768c0-.46.192-.812.579-1.055.385-.243.927-.362 1.625-.357v-.07c0-.497-.26-.745-.783-.745-.372 0-.7.094-.982.28l-.17-.551c.35-.217.782-.326 1.292-.326.985 0 1.48.52 1.48 1.56v1.39c0 .376.018.676.054.898Zm-.87-1.296v-.58c-.923-.016-1.386.237-1.386.76 0 .197.053.344.161.442a.586.586 0 0 0 .41.147.846.846 0 0 0 .512-.174.714.714 0 0 0 .304-.594Zm5.632 1.296h-.743l-.04-.605h-.023c-.237.46-.642.691-1.21.691a1.42 1.42 0 0 1-1.133-.535c-.3-.357-.449-.82-.449-1.389 0-.61.162-1.105.489-1.482a1.502 1.502 0 0 1 1.163-.528c.506 0 .86.17 1.062.512h.016V5.245h.839V9.73c0 .368.01.706.03 1.016Zm-.868-1.59v-.629a.955.955 0 0 0-.326-.772.823.823 0 0 0-.56-.205.86.86 0 0 0-.738.372c-.178.25-.269.567-.269.955 0 .373.086.675.258.908a.862.862 0 0 0 .732.372.807.807 0 0 0 .662-.31c.162-.192.24-.422.24-.691Zm8.035-.326c0 .58-.165 1.055-.497 1.428-.347.383-.806.574-1.38.574-.553 0-.994-.183-1.323-.551-.328-.367-.492-.83-.492-1.389 0-.584.169-1.063.508-1.435.339-.372.795-.559 1.37-.559.552 0 .998.184 1.333.55.32.358.481.818.481 1.382Zm-.868.027c0-.348-.076-.647-.225-.895-.177-.301-.426-.452-.752-.452-.336 0-.592.15-.769.452-.15.248-.225.552-.225.91 0 .348.076.646.225.895.182.301.434.451.76.451.32 0 .572-.152.753-.459.154-.253.233-.554.233-.902Zm5.374 1.889h-.837v-2.16c0-.665-.253-.998-.76-.998a.753.753 0 0 0-.605.274.97.97 0 0 0-.233.647v2.237h-.839V8.053c0-.331-.01-.69-.03-1.08h.736l.04.59h.023c.098-.183.243-.334.434-.455.228-.14.481-.212.76-.212.351 0 .644.114.877.342.29.279.434.696.434 1.25v2.258Zm5.639-3.143h-.922v1.832c0 .466.163.699.488.699.15 0 .275-.013.374-.04l.021.636a1.882 1.882 0 0 1-.65.094c-.332 0-.59-.1-.776-.302-.187-.202-.28-.541-.28-1.017V7.603h-.55v-.628h.55v-.691l.822-.248v.938h.922l.001.63Zm4.436 3.143h-.838V8.602c0-.676-.253-1.014-.76-1.014-.388 0-.653.196-.799.588a1.045 1.045 0 0 0-.039.302v2.268h-.837V5.245h.837v2.273h.016c.264-.414.642-.62 1.132-.62.347 0 .634.113.862.341.284.284.426.707.426 1.265v2.242Zm4.576-2.064c0 .15-.01.277-.03.38h-2.514c.011.373.131.657.364.854.213.176.487.264.823.264.371 0 .71-.06 1.016-.178l.131.582c-.357.155-.778.233-1.265.233-.584 0-1.043-.172-1.376-.516-.334-.344-.5-.806-.5-1.385 0-.569.155-1.042.466-1.42.324-.403.763-.605 1.317-.605.543 0 .954.202 1.233.605.224.32.335.716.335 1.186Zm-.8-.216a1.129 1.129 0 0 0-.162-.644c-.145-.233-.366-.35-.666-.35a.795.795 0 0 0-.667.342 1.27 1.27 0 0 0-.249.652h1.745Z" fill="#000"/>
</svg>
